round/svg/graphic_eq.svg

<svg xmlns="http://www.w3.org/2000/svg" width="24" height="24"><path fill="none" d="M0 0h24v24H0V0z"/><g fill="currentColor"><path d="M8 18c.55 0 1-.45 1-1V7c0-.55-.45-1-1-1s-1 .45-1 1v10c0 .55.45 1 1 1zm4 4c.55 0 1-.45 1-1V3c0-.55-.45-1-1-1s-1 .45-1 1v18c0 .55.45 1 1 1zm-8-8c.55 0 1-.45 1-1v-2c0-.55-.45-1-1-1s-1 .45-1 1v2c0 .55.45 1 1 1zm12 4c.55 0 1-.45 1-1V7c0-.55-.45-1-1-1s-1 .45-1 1v10c0 .55.45 1 1 1zm3-7v2c0 .55.45 1 1 1s1-.45 1-1v-2c0-.55-.45-1-1-1s-1 .45-1 1z"/></g></svg>

<?xml version="1.0" encoding="utf-8"?>
<!-- Generator: Adobe Illustrator 19.1.0, SVG Export Plug-In . SVG Version: 6.00 Build 0)  -->
<svg version="1.1" xmlns="http://www.w3.org/2000/svg" xmlns:xlink="http://www.w3.org/1999/xlink" x="0px" y="0px" width="24px"
	 height="24px" viewBox="0 0 24 24" enable-background="new 0 0 24 24" xml:space="preserve">
<g id="Bounding_Boxes">
	<g id="ui_x5F_spec_x5F_header_copy_3">
	</g>
	<path fill="none" d="M0,0h24v24H0V0z"/>
</g>
<g id="Rounded" fill="currentColor">
	<g id="ui_x5F_spec_x5F_header_copy_6">
	</g>
	<path d="M8,18L8,18c0.55,0,1-0.45,1-1V7c0-0.55-0.45-1-1-1h0C7.45,6,7,6.45,7,7v10C7,17.55,7.45,18,8,18z M12,22L12,22
		c0.55,0,1-0.45,1-1V3c0-0.55-0.45-1-1-1h0c-0.55,0-1,0.45-1,1v18C11,21.55,11.45,22,12,22z M4,14L4,14c0.55,0,1-0.45,1-1v-2
		c0-0.55-0.45-1-1-1h0c-0.55,0-1,0.45-1,1v2C3,13.55,3.45,14,4,14z M16,18L16,18c0.55,0,1-0.45,1-1V7c0-0.55-0.45-1-1-1h0
		c-0.55,0-1,0.45-1,1v10C15,17.55,15.45,18,16,18z M19,11v2c0,0.55,0.45,1,1,1h0c0.55,0,1-0.45,1-1v-2c0-0.55-0.45-1-1-1h0
		C19.45,10,19,10.45,19,11z"/>
</g>
</svg>
